X: 4507
T: Boo Baby's Lullaby
R: waltz
M: 3/4
K: Emajor
B ef|:"E"g2 {ga}b2 ((3gbg)|"B"f3 ~(g/f/ e/f/g/f/)|"A"e2 {B}c3 (d/e/)|"E"(d/c/) B2 {cB}A GB|
"A"A2 c2 e2|"B7"((3fgf) e2 (fe)|"E"g2 {ga}b2 ((3gbg)|"B7"f3 B (ef)|
"E"g2 {ga}b2 ((3gbg)|"B"f3 ~(g/f/ e/f/g/f/)|"C#m"e2 {B}c3 (d/e/)|"G#m"(d/c/)B2 {cB}A GB|
"A"A2 c2 e2|"B7"f2 g2 (f2{afe})|1 "E"{cd}e6|e3 B ef:|2 "E"{cd}e6|e2 B{cB}A GB||
|:"A"A2 c2 e2|"B7"((3fgf) e2 (fe)|"E"[g3 B3] a ge|B2 B{cB}A GB|
"A"A2 c2 e2|"B7"f2 e2 (fe)|"E" {f}g2 {ga}b2 ((3gbf)|"B7"f2 B{cB}A GB|
"A"A2 c2 e2|"B7"((3fgf) e2 fe|"C#m"[g3 B3] a ge|"G#m"B2 B{cB}A GB|
"A" c2 d2 e2|"B7"f2 g2 (f2{afe})|"E"{cd}e6|1 +D.C.+ "B7"e2 "E"B{cB}A GB:|2 "E"e6||

